src/lib/packages/icons/src/assets/line/face-mask.svg

<svg width="24" height="24" viewBox="0 0 24 24" fill="none" xmlns="http://www.w3.org/2000/svg">
<path d="M22.75 12C22.75 6.07 17.93 1.25 12 1.25C6.07 1.25 1.25 6.07 1.25 12C1.25 15.77 3.20997 19.09 6.15997 21.01C6.17997 21.03 6.20998 21.04 6.22998 21.05C7.89998 22.12 9.88 22.75 12 22.75C14.12 22.75 15.99 22.15 17.63 21.14C17.63 21.14 17.63 21.14 17.64 21.14C20.7 19.24 22.75 15.86 22.75 12.01V12ZM18.28 18.77L18.68 14.76C18.69 14.61 18.68 14.46 18.66 14.31L21.23 12.47C21.1 14.96 20 17.18 18.28 18.77ZM12 2.75C16.65 2.75 20.5 6.20999 21.15 10.68L17.8 13.08C17.8 13.08 17.75 13.04 17.72 13.02L13.23 10.78C12.46 10.4 11.54 10.4 10.77 10.78L6.28003 13.03C6.28003 13.03 6.23001 13.07 6.20001 13.09L2.85999 10.7C3.49999 6.22 7.35001 2.77 12.01 2.77L12 2.75ZM2.77002 12.47L5.34003 14.31C5.32003 14.46 5.30001 14.61 5.32001 14.76L5.71997 18.77C4.00997 17.18 2.90002 14.95 2.77002 12.47ZM7.34003 19.98L6.81 14.62C6.81 14.57 6.81003 14.51 6.84003 14.47C6.86003 14.43 6.9 14.39 6.94 14.37L11.43 12.13C11.78 11.96 12.2 11.96 12.55 12.13L17.03 14.37C17.03 14.37 17.12 14.43 17.14 14.48C17.16 14.52 17.18 14.58 17.17 14.63L16.64 20C15.27 20.8 13.68 21.27 11.99 21.27C10.3 21.27 8.71003 20.8 7.34003 20V19.98ZM13.74 18C13.74 18.41 13.4 18.75 12.99 18.75H10.99C10.58 18.75 10.24 18.41 10.24 18C10.24 17.59 10.58 17.25 10.99 17.25H12.99C13.4 17.25 13.74 17.59 13.74 18ZM13.28 8.75999C13.59 7.85999 14.44 7.25 15.4 7.25C16.36 7.25 17.21 7.84999 17.52 8.75999C17.65 9.14999 17.45 9.58001 17.06 9.71001C16.98 9.74001 16.9 9.75 16.81 9.75C16.5 9.75 16.21 9.56001 16.1 9.24001C16 8.95001 15.71 8.75 15.4 8.75C15.09 8.75 14.8 8.95001 14.7 9.24001C14.57 9.63001 14.14 9.84 13.75 9.7C13.36 9.56 13.15 9.14 13.29 8.75L13.28 8.75999ZM6.46002 8.75999C6.77002 7.85999 7.62002 7.25 8.58002 7.25C9.54002 7.25 10.39 7.84999 10.7 8.75999C10.83 9.14999 10.63 9.58001 10.24 9.71001C10.16 9.74001 10.08 9.75 9.98999 9.75C9.67999 9.75 9.39003 9.56001 9.28003 9.24001C9.18003 8.95001 8.89002 8.75 8.58002 8.75C8.27002 8.75 7.98 8.95001 7.88 9.24001C7.75 9.63001 7.31999 9.84 6.92999 9.7C6.53999 9.56 6.32997 9.14 6.46997 8.75L6.46002 8.75999Z" fill="currentColor"/>
</svg>

<svg xmlns="http://www.w3.org/2000/svg" width="24" height="24" fill="none"><path fill="currentColor" d="M22.75 12c0-5.93-4.82-10.75-10.75-10.75S1.25 6.07 1.25 12c0 3.77 1.96 7.09 4.91 9.01.02.02.05.03.07.04a10.67 10.67 0 0 0 5.77 1.7c2.12 0 3.99-.6 5.63-1.61h.01c3.06-1.9 5.11-5.28 5.11-9.13V12Zm-4.47 6.77.4-4.01c.01-.15 0-.3-.02-.45l2.57-1.84a9.195 9.195 0 0 1-2.95 6.3ZM12 2.75c4.65 0 8.5 3.46 9.15 7.93l-3.35 2.4s-.05-.04-.08-.06l-4.49-2.24c-.77-.38-1.69-.38-2.46 0l-4.49 2.25s-.05.04-.08.06L2.86 10.7c.64-4.48 4.49-7.93 9.15-7.93L12 2.75Zm-9.23 9.72 2.57 1.84c-.02.15-.04.3-.02.45l.4 4.01a9.258 9.258 0 0 1-2.95-6.3Zm4.57 7.51-.53-5.36c0-.05 0-.11.03-.15a.24.24 0 0 1 .1-.1l4.49-2.24c.35-.17.77-.17 1.12 0l4.48 2.24s.09.06.11.11c.02.04.04.1.03.15L16.64 20c-1.37.8-2.96 1.27-4.65 1.27-1.69 0-3.28-.47-4.65-1.27v-.02Zm6.4-1.98c0 .41-.34.75-.75.75h-2c-.41 0-.75-.34-.75-.75s.34-.75.75-.75h2c.41 0 .75.34.75.75Zm-.46-9.24c.31-.9 1.16-1.51 2.12-1.51.96 0 1.81.6 2.12 1.51a.748.748 0 0 1-.71.99c-.31 0-.6-.19-.71-.51a.747.747 0 0 0-.7-.49c-.31 0-.6.2-.7.49a.74.74 0 0 1-.95.46.744.744 0 0 1-.46-.95l-.01.01Zm-6.82 0c.31-.9 1.16-1.51 2.12-1.51.96 0 1.81.6 2.12 1.51a.748.748 0 0 1-.71.99c-.31 0-.6-.19-.71-.51a.747.747 0 0 0-.7-.49c-.31 0-.6.2-.7.49a.74.74 0 0 1-.95.46.744.744 0 0 1-.46-.95l-.01.01Z"/></svg>
